X:39
T:Big Sandy River
C:Traditional
N:
R:bluegrass
L:1/8
Q:1/4=235
M:4/4
K:A
fg |: "A"a2 c2 d2 ^d2 | ef e=c ^cA F=F | "E"ED EF GF GA | BA Bc de fg | "A"a2 c2 d2 ^d2 | 
ef e=c ^cA F=F | "E"EF GA Bd cB |1 "A"AG AB A2 eg :|2 "A"AG AB A2 EF |: "A"AG AB cB Bc | 
"D"dc de fe df | "E"e^d ef ge fg | "A"af ed cA BG | AG AB cA Bc | "D"dc de fe df | 
"E"e^d ef ge fg |1 "A"ag ab a2 EF :|2 "A"ag ab a4 |] 

